assets/icons/24px/stroke/underline-24px.svg

<svg width="24" height="24" viewBox="0 0 24 24" fill="none" xmlns="http://www.w3.org/2000/svg">
<path fill-rule="evenodd" clip-rule="evenodd" d="M5 2.22217C5.55228 2.22217 6 2.66988 6 3.22217C6 6.26813 6.00038 8.64458 6.10774 10.5169C6.21599 12.4049 6.42921 13.6634 6.79487 14.5209C7.13241 15.3125 7.59641 15.759 8.32162 16.0464C9.11936 16.3627 10.2701 16.4999 12 16.4999C13.7299 16.4999 14.8806 16.3627 15.6784 16.0464C16.4036 15.759 16.8676 15.3125 17.2051 14.5209C17.5708 13.6634 17.784 12.4049 17.8923 10.5169C17.9996 8.64458 18 6.26813 18 3.22217C18 2.66988 18.4477 2.22217 19 2.22217C19.5523 2.22217 20 2.66988 20 3.22217V3.25285C20 6.26219 20 8.69522 19.889 10.6314C19.7785 12.5586 19.5542 14.1108 19.0449 15.3054C18.5074 16.5658 17.6589 17.4128 16.4154 17.9057C15.2444 18.3699 13.7701 18.4999 12 18.4999C10.2299 18.4999 8.75564 18.3699 7.58463 17.9057C6.34108 17.4128 5.49259 16.5658 4.95513 15.3054C4.44579 14.1108 4.22151 12.5586 4.11101 10.6314C4 8.69522 4 6.26218 4 3.25285V3.22217C4 2.66988 4.44772 2.22217 5 2.22217ZM5 21C5 20.4477 5.44772 20 6 20H18C18.5523 20 19 20.4477 19 21C19 21.5523 18.5523 22 18 22H6C5.44772 22 5 21.5523 5 21Z" fill="white"/>
</svg>

<svg width="24" height="24" fill="none" xmlns="http://www.w3.org/2000/svg"><path fill-rule="evenodd" clip-rule="evenodd" d="M5 2.222a1 1 0 0 1 1 1c0 3.046 0 5.423.108 7.295.108 1.888.321 3.146.687 4.004.337.791.801 1.238 1.527 1.525.797.317 1.948.454 3.678.454s2.88-.137 3.678-.454c.726-.287 1.19-.733 1.527-1.525.366-.858.579-2.116.687-4.004C18 8.645 18 6.268 18 3.222a1 1 0 1 1 2 0v.03c0 3.01 0 5.443-.111 7.38-.11 1.927-.335 3.479-.844 4.673-.538 1.26-1.386 2.108-2.63 2.6-1.17.465-2.645.595-4.415.595s-3.244-.13-4.415-.594c-1.244-.493-2.092-1.34-2.63-2.6-.51-1.195-.733-2.747-.844-4.675C4 8.695 4 6.262 4 3.253v-.03a1 1 0 0 1 1-1zM5 21a1 1 0 0 1 1-1h12a1 1 0 1 1 0 2H6a1 1 0 0 1-1-1z" fill="#fff"/></svg>
